svgs/sharp-regular/mailbox.svg

<svg xmlns="http://www.w3.org/2000/svg" viewBox="0 0 576 512"><!--! Font Awesome Pro 6.6.0 by @fontawesome - https://fontawesome.com License - https://fontawesome.com/license (Commercial License) Copyright 2024 Fonticons, Inc. --><path d="M48 208c0-53 43-96 96-96s96 43 96 96l0 192L48 400l0-192zM240 448l48 0 240 0 48 0 0-48 0-192c0-79.5-64.5-144-144-144L144 64C64.5 64 0 128.5 0 208L0 400l0 48 48 0 192 0zm48-240c0-36.9-13.9-70.5-36.7-96L432 112c53 0 96 43 96 96l0 192-240 0 0-192zM104 192l-24 0 0 48 24 0 80 0 24 0 0-48-24 0-80 0zm256 0l-24 0 0 48 24 0 56 0 0 24 0 24 24 0 16 0 24 0 0-24 0-48 0-24-24 0-16 0-80 0z"/></svg>

<svg xmlns="http://www.w3.org/2000/svg" viewBox="0 0 576 512"><!--! Font Awesome Pro 6.4.2 by @fontawesome - https://fontawesome.com License - https://fontawesome.com/license (Commercial License) Copyright 2023 Fonticons, Inc. --><path d="M48 208c0-53 43-96 96-96s96 43 96 96V400H48V208zM240 448h48H528h48V400 208c0-79.5-64.5-144-144-144H144C64.5 64 0 128.5 0 208V400v48H48 240zm48-240c0-36.9-13.9-70.5-36.7-96H432c53 0 96 43 96 96V400H288V208zM104 192H80v48h24 80 24V192H184 104zm256 0H336v48h24 56v24 24h24 16 24V264 216 192H456 440 360z"/></svg>
